X: 1
T: Lose The Head
M: 4/4
L: 1/8
R: reel
K: Dmaj
(3Bcd eg ~f2~f2|g2gf gfed|(3Bcd eg fa~a2|1 gfeg fedA:|2 gfeg fedf||
|:a2^ga ~f2~f2|agfa gb~b2|a2^ga ~f2~f2|1 gfeg fedf:|2 gfeg fede||
|:fedf edce|dBcd cA~A2|BAGB AF~F2|1 EFGE FEDe:|2 EFGE FEDA||
